public/floating/coin.svg

<svg width="166" height="167" viewBox="0 0 166 167" fill="none" xmlns="http://www.w3.org/2000/svg">
<path d="M69.2023 152.857C107.343 160.271 144.316 135.142 151.782 96.7297C159.249 58.3174 134.382 21.168 96.2412 13.7541C58.1 6.34023 21.1276 31.4693 13.661 69.8816C6.1944 108.294 31.0611 145.443 69.2023 152.857Z" fill="#FFE177"/>
<path d="M96.2413 13.7546C94.3748 13.3918 93.1304 13.1499 91.2639 12.7871C126.863 22.3078 149.636 57.9473 142.45 94.9161C135.264 131.885 100.798 156.398 64.225 151.89C66.0915 152.253 67.3359 152.495 69.2024 152.858C107.777 160.356 144.353 134.952 151.783 96.7302C159.212 58.5082 134.816 21.2527 96.2413 13.7546Z" fill="#FFD15B"/>
<path d="M72.2472 137.192C101.798 142.936 130.443 123.466 136.228 93.7056C142.013 63.9447 122.747 35.1623 93.1962 29.4182C63.6454 23.6741 35.0001 43.1435 29.2152 72.9043C23.4303 102.665 42.6963 131.448 72.2472 137.192Z" fill="#FFC344"/>
<path d="M104.794 99.2994C104.794 99.2994 104.876 88.9112 98.7631 83.8213C98.7631 83.8213 106.446 77.5116 103.661 65.2655C103.661 65.2655 102.878 56.0095 93.2885 52.1947C93.2885 52.1947 84.3213 48.5009 76.5031 52.1833L66.394 104.19C66.394 104.19 67.7865 110.313 73.1424 112.655L78.6233 84.4584C86.4547 84.0299 90.2009 88.0094 90.2009 88.0094C97.4365 93.9677 95.8531 102.113 95.8531 102.113C94.4048 112.886 85.0854 114.326 85.0854 114.326C80.243 115.986 74.8871 113.644 73.6428 113.402C73.3992 114.656 71.9376 122.175 71.9376 122.175C71.9376 122.175 82.5277 127.485 95.0533 119.515C94.4311 119.394 104.103 112.821 104.794 99.2994ZM90.0395 78.8743C84.8318 82.4139 79.5976 79.4457 79.5976 79.4457L83.6169 58.7682C94.0588 58.1968 94.8423 67.4528 94.8423 67.4528C96.6134 74.95 90.0395 78.8743 90.0395 78.8743Z" fill="#D97B12"/>
<path d="M77.109 78.9631C66.5321 76.9072 57.8218 75.2141 57.8218 75.2141L53.7366 79.6221L76.1346 83.9758L77.109 78.9631Z" fill="#D97B12"/>
<path d="M68.3985 77.2692L67.4241 82.2819L115.953 91.715L119.538 86.5594C119.416 87.186 80.2197 79.567 68.3985 77.2692Z" fill="#D97B12"/>
<path d="M74.795 90.8674C64.2182 88.8115 55.5078 87.1184 55.5078 87.1184L51.4226 91.5264L73.8207 95.8801L74.795 90.8674Z" fill="#D97B12"/>
<path d="M66.0845 89.1735L65.1101 94.1862L113.639 103.619L117.224 98.4637C117.102 99.0903 77.9057 91.4713 66.0845 89.1735Z" fill="#D97B12"/>
</svg>

<svg xmlns="http://www.w3.org/2000/svg" width="166" height="167" fill="none" viewBox="0 0 166 167"><path fill="#ffe177" d="M69.202 152.857c38.141 7.414 75.114-17.715 82.58-56.127 7.467-38.413-17.4-75.562-55.54-82.976C58.1 6.34 21.127 31.47 13.66 69.882s17.4 75.561 55.541 82.975"/><path fill="#ffd15b" d="m96.241 13.755-4.977-.968c35.599 9.52 58.372 45.16 51.186 82.13-7.186 36.968-41.652 61.481-78.225 56.973l4.977.968c38.575 7.498 75.151-17.906 82.581-56.128 7.429-38.222-16.967-75.477-55.542-82.975"/><path fill="#ffc344" d="M72.247 137.192c29.551 5.744 58.196-13.726 63.981-43.486 5.785-29.761-13.481-58.544-43.032-64.288S35 43.144 29.216 72.904c-5.786 29.761 13.48 58.544 43.031 64.288"/><path fill="#d97b12" d="M104.794 99.3s.082-10.389-6.03-15.479c0 0 7.682-6.31 4.897-18.555 0 0-.783-9.257-10.373-13.071 0 0-8.967-3.694-16.785-.012L66.394 104.19s1.392 6.123 6.748 8.465l5.481-28.197c7.832-.428 11.578 3.551 11.578 3.551 7.236 5.959 5.652 14.104 5.652 14.104-1.448 10.773-10.768 12.213-10.768 12.213-4.842 1.66-10.198-.682-11.442-.924l-1.705 8.773s10.59 5.31 23.115-2.66c-.622-.121 9.05-6.694 9.741-20.216M90.04 78.873c-5.208 3.54-10.442.572-10.442.572l4.019-20.678c10.442-.571 11.225 8.685 11.225 8.685 1.771 7.497-4.802 11.421-4.802 11.421"/><path fill="#d97b12" d="m77.109 78.963-19.287-3.749-4.085 4.408 22.398 4.354z"/><path fill="#d97b12" d="m68.399 77.27-.975 5.012 48.529 9.433 3.585-5.156c-.122.627-39.318-6.992-51.14-9.29m6.397 13.598-19.287-3.749-4.085 4.408L73.82 95.88z"/><path fill="#d97b12" d="m66.085 89.174-.975 5.012 48.529 9.433 3.585-5.155c-.122.626-39.318-6.993-51.14-9.29"/></svg>
